X:1
T:Title
%%score ( 1 2 ) { 3 | 4 }
L:1/8
Q:1/4=103
M:4/4
K:G
V:1 treble nm="Grand Piano, Soprano"
V:2 treble 
V:3 treble nm="Choir Pad, Bass"
V:4 bass 
V:1
 [GB]2 [GB]2 [Bd]>[GB] [FA]>B | z4 B4 | E-[Ee]dA [DG]2 [DB]>A | [DG]4 [DF]4 | %4
w: By~R.~T.~Wiley,~1888 * * * * *||||
 [GB]2 [GB]2 [Bd]>[GB] [FA]>B | G2 [GA]2 [FB]4 | Ae[Gc][EA] [DG]2 [FA]>B | [FA]4 [DG]4- | %8
w: ||||
 [DG]4 z4 |] %9
w: |
V:2
 x8 | G2 [FA]2 G2 =F2 | .A2 E2 z4 | x8 | x8 | x8 | G2 z2 z4 | x8 | x8 |] %9
V:3
 D2 D2 D2 C>D | B,2 D2 D4 | C2 C2 B,2 D>C | B,4 A,4 | D2 D2 D2 C>B, | B,2 E2 ^D4 | E2 EC B,2 C>D | %7
 C4 B,4- | B,4 z4 |] %9
V:4
 G,2 G,2 D,2 D,2 | E,2 D,2 G,4 | C,2 C,2 D,2 D,2 | E,4 D,4 | G,,2 G,2 D,2 ^D,2 | E,2 C,2 B,,4 | %6
 C,2 C,2 D,2 D,2 | D,4 G,,4- | G,,4 z4 |] %9

